X:1
T:Bells of Easter
T:Bells of Easter
T:Martha Mills Newton
T:Edith J. Sanford Tillotson, 1913
T:Public Domain Courtesy of the Cyber Hymnal™
C:Martha Mills Newton
Z:Public Domain
Z:Courtesy of the Cyber Hymnal™
%%score ( 1 2 ) 3
L:1/8
Q:1/4=83
M:2/4
K:G
V:1 treble 
V:2 treble 
V:3 bass 
V:1
 [DB][CA] [B,G][B,D] | [DF][CE] [CE]2 | [CF][CG] [CA]2 | [B,G][CA] [DB]2 | [Bd][Ac] [GB][FA] | %5
w: 1.~Bells of East- er,|sweet- ly ring,|“Christ is King,|Christ is King”;|With your sil- very|
w: 2.~Ring the word the|an- gel gives,|“Je- sus lives,|Je- sus lives!”|Ring a- gain that|
w: 3.~Ring un- til the|whole world knows,|“Christ a- rose,|Christ a- rose!”|Send the tid- ings|
 [EG][CE] [Ec]2 | [B,D][DB] [DB][CA] | [B,G]3 z ||"^Refrain" DA A^G | AB c2 | DB BA | %11
w: voic- es say,|“Christ a- rose to-|day!”||||
w: hap- py lay,|“Christ a- rose to-|day!”|Ring our pre- cious|song a- new!|Ring your sto- ry|
w: far a- way,|“Christ a- rose to-|day!”||||
 [DB][G^c] [Fd]2 | [Bd][Ac] [GB][FA] | [EG][CE] [Ec]2 | [B,D][DB] [DB][CA] | [B,G]3 z |] %16
w: |||||
w: and true, Bells|of East- er, ring|and say, “Christ|a- rose to- day!”||
w: |||||
V:2
 x4 | x4 | x4 | x4 | D4 | x4 | x4 | x4 || D4- | D4 | D4- | x4 | D4 | x4 | x4 | x4 |] %16
V:3
 G,,2 [D,G,]2 | C,[E,G,] [E,G,]2 | D,,[D,F,] [D,F,]2 | F,,[D,G,] [D,G,]2 | G,,2 [D,G,]2 | %5
 C,[E,G,] [A,,E,]2 | D,,2 [D,F,]2 | [G,,D,G,]3 z || D,,[D,F,] [D,F,][^D,E,] | %9
 [D,F,][D,G,] [D,A,]2 | G,,[D,G,] [D,G,][D,F,] | G,[E,A,] [D,A,]2 | G,,2 [D,G,]2 | %13
 C,[E,G,] [A,,E,]2 | D,,2 [D,F,]2 | [G,,D,G,]3 z |] %16

